X: 3375
T: Benbulben's Shadow
R: reel
M: 4/4
K: Bminor
|:fbag ~f3d|ed B/c/d eedc|Bbag f2af|deed egfe|
fbag ~f4|edBA BAF2|GABd cedc|1 B2BA Bcde:|2 B2BA Bcdc||
Bdfd Bdfd|Bdfd edBA|B/c/d fd Bdfd|eedc B2BA|
Bdfd bdfd|Adfd Gdfa|b2ag ~f3d|eedc B2BA|
B/c/d fd bdfd|~e3f edcA|Bbag f2fd|eedc B2BA|
B/c/d fd bdfd|Adfd Gdfa|b2ag ~f3d|eedc Bcde||

